svg/dropbox.svg

<svg xmlns="http://www.w3.org/2000/svg" viewBox="0 0 24 24"><path d="m3 6.2 5 3.19 5-3.19L8 3zm10 0 5 3.19 5-3.19L18 3zM3 12.55l5 3.19 5-3.19-5-3.2zm15-3.2-5 3.2 5 3.19 5-3.19zM8.03 16.8l5.01 3.2 5-3.2-5-3.19z"/></svg>

<?xml version="1.0" encoding="UTF-8"?><!DOCTYPE svg PUBLIC "-//W3C//DTD SVG 1.1//EN" "http://www.w3.org/Graphics/SVG/1.1/DTD/svg11.dtd"><svg xmlns="http://www.w3.org/2000/svg" xmlns:xlink="http://www.w3.org/1999/xlink" version="1.1" id="mdi-dropbox" width="24" height="24" viewBox="0 0 24 24"><path d="M3 6.2L8 9.39L13 6.2L8 3L3 6.2M13 6.2L18 9.39L23 6.2L18 3L13 6.2M3 12.55L8 15.74L13 12.55L8 9.35L3 12.55M18 9.35L13 12.55L18 15.74L23 12.55L18 9.35M8.03 16.8L13.04 20L18.04 16.8L13.04 13.61L8.03 16.8Z" /></svg>
